ModelicaByExample/Components/BlockDiagrams/Components/Sum.svg

<?xml version="1.0" encoding="UTF-8"?>
<svg xmlns="http://www.w3.org/2000/svg" xmlns:xlink="http://www.w3.org/1999/xlink" width="836.54372pt" height="697.81881pt" viewBox="0 0 836.54372 697.81881" version="1.1">
<g id="surface1">
<path style="fill-rule:evenodd;fill:rgb(100%,100%,100%);fill-opacity:1;stroke-width:1;stroke-linecap:square;stroke-linejoin:miter;stroke:rgb(0%,0%,0%);stroke-opacity:1;stroke-miterlimit:2;" d="M -100.000501 -100.000027 L 100.000274 -100.000027 L 100.000274 99.99959 L -100.000501 99.99959 L -100.000501 -100.000027 " transform="matrix(3.372233,0,0,-3.372233,418.271868,348.909419)"/>
<path style="fill-rule:evenodd;fill:rgb(0%,0%,0%);fill-opacity:1;stroke-width:1;stroke-linecap:square;stroke-linejoin:miter;stroke:rgb(0%,0%,0%);stroke-opacity:1;stroke-miterlimit:2;" d="M 56.00008 -63.999447 L 52.000273 -72.00022 L -56.000308 -72.00022 L -8.000307 -0.000218627 L -53.999825 71.999782 L 52.000273 71.999782 L 56.00008 64.000168 L 66.000177 70.000458 L 59.999887 80.000555 L -71.999536 80.000555 L -19.999728 -0.000218627 L -71.999536 -79.999834 L 59.999887 -79.999834 L 66.000177 -69.999737 L 56.00008 -63.999447 " transform="matrix(3.372233,0,0,-3.372233,418.271868,348.909419)"/>
<path style="fill-rule:evenodd;fill:rgb(100%,100%,100%);fill-opacity:1;stroke-width:1;stroke-linecap:square;stroke-linejoin:miter;stroke:rgb(0%,0%,100%);stroke-opacity:1;stroke-miterlimit:2;" d="M -99.997261 99.99878 L 100.004672 -0.00218627 L -99.997261 -100.003153 L -99.997261 99.99878 " transform="matrix(0.337223,0,0,-0.337223,789.2175,348.909419)"/>
<path style="fill-rule:evenodd;fill:rgb(0%,0%,100%);fill-opacity:1;stroke-width:1;stroke-linecap:square;stroke-linejoin:miter;stroke:rgb(0%,0%,100%);stroke-opacity:1;stroke-miterlimit:2;" d="M -99.995362 99.99878 L 99.994988 -0.00218627 L -99.995362 -100.003153 L -99.995362 99.99878 " transform="matrix(0.337223,0,0,-0.337223,47.326235,348.909419)"/>
</g>
</svg>

<?xml version="1.0" encoding="UTF-8" standalone="no"?>
<svg
   xmlns:dc="http://purl.org/dc/elements/1.1/"
   xmlns:cc="http://creativecommons.org/ns#"
   xmlns:rdf="http://www.w3.org/1999/02/22-rdf-syntax-ns#"
   xmlns:svg="http://www.w3.org/2000/svg"
   xmlns="http://www.w3.org/2000/svg"
   xmlns:sodipodi="http://sodipodi.sourceforge.net/DTD/sodipodi-0.dtd"
   xmlns:inkscape="http://www.inkscape.org/namespaces/inkscape"
   width="230.44678mm"
   height="191.29553mm"
   viewBox="475 2 295.9677 658.27497"
   version="1.2"
   id="svg2"
   inkscape:version="0.91 r13725"
   sodipodi:docname="Sum.svg">
  <metadata
     id="metadata138">
    <rdf:RDF>
      <cc:Work
         rdf:about="">
        <dc:format>image/svg+xml</dc:format>
        <dc:type
           rdf:resource="http://purl.org/dc/dcmitype/StillImage" />
        <dc:title>OMEdit - OpenModelica Connection Editor</dc:title>
      </cc:Work>
    </rdf:RDF>
  </metadata>
  <sodipodi:namedview
     pagecolor="#ffffff"
     bordercolor="#666666"
     borderopacity="1"
     objecttolerance="10"
     gridtolerance="10"
     guidetolerance="10"
     inkscape:pageopacity="0"
     inkscape:pageshadow="2"
     inkscape:window-width="640"
     inkscape:window-height="480"
     id="namedview136"
     showgrid="false"
     fit-margin-top="0"
     fit-margin-left="0"
     fit-margin-right="0"
     fit-margin-bottom="0"
     inkscape:zoom="0.13724812"
     inkscape:cx="833.33452"
     inkscape:cy="263.74205"
     inkscape:window-x="0"
     inkscape:window-y="24"
     inkscape:window-maximized="0"
     inkscape:current-layer="svg2" />
  <title
     id="title4">OMEdit - OpenModelica Connection Editor</title>
  <desc
     id="desc6">Generated by OMEdit - OpenModelica Connection Editor</desc>
  <defs
     id="defs8" />
  <g
     id="g10"
     style="fill:none;fill-rule:evenodd;stroke:#000000;stroke-width:1;stroke-linecap:square;stroke-linejoin:bevel"
     transform="translate(-245.01614,2.1375)">
    <g
       font-size="11"
       font-weight="400"
       font-style="normal"
       id="g12"
       style="font-style:normal;font-weight:400;font-size:11px;font-family:Ubuntu;fill:none;stroke:#000000;stroke-width:1;stroke-linecap:square;stroke-linejoin:bevel;stroke-opacity:1" />
    <g
       font-size="11"
       font-weight="400"
       font-style="normal"
       id="g14"
       style="font-style:normal;font-weight:400;font-size:11px;font-family:Ubuntu;fill:none;stroke:#000000;stroke-width:1;stroke-linecap:square;stroke-linejoin:bevel;stroke-opacity:1" />
    <g
       font-size="11"
       font-weight="400"
       font-style="normal"
       id="g16"
       style="font-style:normal;font-weight:400;font-size:11px;font-family:Ubuntu;fill:none;stroke:#000000;stroke-width:1;stroke-linecap:square;stroke-linejoin:bevel;stroke-opacity:1" />
    <g
       transform="matrix(3.275,0,0,-3.275,868,329)"
       font-size="11"
       font-weight="400"
       font-style="normal"
       id="g18"
       style="font-style:normal;font-weight:400;font-size:11px;font-family:Ubuntu;fill:none;stroke:#000000;stroke-width:1;stroke-linecap:square;stroke-linejoin:bevel;stroke-opacity:1" />
    <g
       stroke-miterlimit="2"
       transform="matrix(3.275,0,0,-3.275,868,329)"
       font-size="11"
       font-weight="400"
       font-style="normal"
       id="g20"
       style="font-style:normal;font-weight:400;font-size:11px;font-family:Ubuntu;fill:#ffffff;fill-opacity:1;stroke:#000000;stroke-width:1;stroke-linecap:square;stroke-linejoin:miter;stroke-miterlimit:2;stroke-opacity:1">
      <path
         vector-effect="non-scaling-stroke"
         d="m -100,-100 200,0 0,200 -200,0 0,-200"
         id="path22"
         inkscape:connector-curvature="0"
         style="fill-rule:evenodd" />
    </g>
    <g
       transform="matrix(3.275,0,0,-3.275,868,329)"
       font-size="11"
       font-weight="400"
       font-style="normal"
       id="g24"
       style="font-style:normal;font-weight:400;font-size:11px;font-family:Ubuntu;fill:none;stroke:#000000;stroke-width:1;stroke-linecap:square;stroke-linejoin:bevel;stroke-opacity:1" />
    <g
       transform="matrix(3.275,0,0,-3.275,868,329)"
       font-size="11"
       font-weight="400"
       font-style="normal"
       id="g26"
       style="font-style:normal;font-weight:400;font-size:11px;font-family:Ubuntu;fill:none;stroke:#000000;stroke-width:1;stroke-linecap:square;stroke-linejoin:bevel;stroke-opacity:1" />
    <g
       stroke-miterlimit="2"
       transform="matrix(3.275,0,0,-3.275,868,329)"
       font-size="11"
       font-weight="400"
       font-style="normal"
       id="g28"
       style="font-style:normal;font-weight:400;font-size:11px;font-family:Ubuntu;fill:#000000;fill-opacity:1;stroke:#000000;stroke-width:1;stroke-linecap:square;stroke-linejoin:miter;stroke-miterlimit:2;stroke-opacity:1">
      <path
         vector-effect="non-scaling-stroke"
         d="m 56,-64 -4,-8 -108,0 48,72 -46,72 106,0 4,-8 10,6 -6,10 -132,0 52,-80 -52,-80 132,0 6,10 -10,6"
         id="path30"
         inkscape:connector-curvature="0"
         style="fill-rule:evenodd" />
    </g>
    <g
       transform="matrix(3.275,0,0,-3.275,868,329)"
       font-size="11"
       font-weight="400"
       font-style="normal"
       id="g32"
       style="font-style:normal;font-weight:400;font-size:11px;font-family:Ubuntu;fill:none;stroke:#000000;stroke-width:1;stroke-linecap:square;stroke-linejoin:bevel;stroke-opacity:1" />
    <g
       transform="matrix(0.3275,0,0,-0.3275,1228.25,329)"
       font-size="11"
       font-weight="400"
       font-style="normal"
       id="g34"
       style="font-style:normal;font-weight:400;font-size:11px;font-family:Ubuntu;fill:none;stroke:#000000;stroke-width:1;stroke-linecap:square;stroke-linejoin:bevel;stroke-opacity:1" />
    <g
       transform="matrix(0.3275,0,0,-0.3275,1228.25,329)"
       font-size="11"
       font-weight="400"
       font-style="normal"
       id="g36"
       style="font-style:normal;font-weight:400;font-size:11px;font-family:Ubuntu;fill:none;stroke:#000000;stroke-width:1;stroke-linecap:square;stroke-linejoin:bevel;stroke-opacity:1" />
    <g
       transform="matrix(0.3275,0,0,-0.3275,1228.25,329)"
       font-size="11"
       font-weight="400"
       font-style="normal"
       id="g38"
       style="font-style:normal;font-weight:400;font-size:11px;font-family:Ubuntu;fill:none;stroke:#000000;stroke-width:1;stroke-linecap:square;stroke-linejoin:bevel;stroke-opacity:1" />
    <g
       stroke-miterlimit="2"
       transform="matrix(0.3275,0,0,-0.3275,1228.25,329)"
       font-size="11"
       font-weight="400"
       font-style="normal"
       id="g40"
       style="font-style:normal;font-weight:400;font-size:11px;font-family:Ubuntu;fill:#ffffff;fill-opacity:1;stroke:#0000ff;stroke-width:1;stroke-linecap:square;stroke-linejoin:miter;stroke-miterlimit:2;stroke-opacity:1">
      <path
         vector-effect="non-scaling-stroke"
         d="M -100,100 100,0 l -200,-100 0,200"
         id="path42"
         inkscape:connector-curvature="0"
         style="fill-rule:evenodd" />
    </g>
    <g
       transform="matrix(0.3275,0,0,-0.3275,1228.25,329)"
       font-size="11"
       font-weight="400"
       font-style="normal"
       id="g44"
       style="font-style:normal;font-weight:400;font-size:11px;font-family:Ubuntu;fill:none;stroke:#000000;stroke-width:1;stroke-linecap:square;stroke-linejoin:bevel;stroke-opacity:1" />
    <g
       transform="translate(1195.5,361.75)"
       font-size="11"
       font-weight="400"
       font-style="normal"
       id="g46"
       style="font-style:normal;font-weight:400;font-size:11px;font-family:Ubuntu;fill:none;stroke:#000000;stroke-width:1;stroke-linecap:square;stroke-linejoin:bevel;stroke-opacity:1" />
    <g
       transform="translate(1195.5,361.75)"
       font-size="11"
       font-weight="400"
       font-style="normal"
       id="g48"
       style="font-style:normal;font-weight:400;font-size:11px;font-family:Ubuntu;fill:#000000;fill-opacity:0;stroke:#000000;stroke-width:1;stroke-linecap:square;stroke-linejoin:bevel;stroke-opacity:0">
      <path
         vector-effect="non-scaling-stroke"
         d="m -3,-3 6,0 0,6 -6,0 0,-6"
         id="path50"
         inkscape:connector-curvature="0"
         style="fill-rule:evenodd" />
    </g>
    <g
       transform="translate(1195.5,361.75)"
       font-size="11"
       font-weight="400"
       font-style="normal"
       id="g52"
       style="font-style:normal;font-weight:400;font-size:11px;font-family:Ubuntu;fill:none;stroke:#000000;stroke-width:1;stroke-linecap:square;stroke-linejoin:bevel;stroke-opacity:1" />
    <g
       transform="translate(1195.5,296.25)"
       font-size="11"
       font-weight="400"
       font-style="normal"
       id="g54"
       style="font-style:normal;font-weight:400;font-size:11px;font-family:Ubuntu;fill:none;stroke:#000000;stroke-width:1;stroke-linecap:square;stroke-linejoin:bevel;stroke-opacity:1" />
    <g
       transform="translate(1195.5,296.25)"
       font-size="11"
       font-weight="400"
       font-style="normal"
       id="g56"
       style="font-style:normal;font-weight:400;font-size:11px;font-family:Ubuntu;fill:#000000;fill-opacity:0;stroke:#000000;stroke-width:1;stroke-linecap:square;stroke-linejoin:bevel;stroke-opacity:0">
      <path
         vector-effect="non-scaling-stroke"
         d="m -3,-3 6,0 0,6 -6,0 0,-6"
         id="path58"
         inkscape:connector-curvature="0"
         style="fill-rule:evenodd" />
    </g>
    <g
       transform="translate(1195.5,296.25)"
       font-size="11"
       font-weight="400"
       font-style="normal"
       id="g60"
       style="font-style:normal;font-weight:400;font-size:11px;font-family:Ubuntu;fill:none;stroke:#000000;stroke-width:1;stroke-linecap:square;stroke-linejoin:bevel;stroke-opacity:1" />
    <g
       transform="translate(1261,296.25)"
       font-size="11"
       font-weight="400"
       font-style="normal"
       id="g62"
       style="font-style:normal;font-weight:400;font-size:11px;font-family:Ubuntu;fill:none;stroke:#000000;stroke-width:1;stroke-linecap:square;stroke-linejoin:bevel;stroke-opacity:1" />
    <g
       transform="translate(1261,296.25)"
       font-size="11"
       font-weight="400"
       font-style="normal"
       id="g64"
       style="font-style:normal;font-weight:400;font-size:11px;font-family:Ubuntu;fill:#000000;fill-opacity:0;stroke:#000000;stroke-width:1;stroke-linecap:square;stroke-linejoin:bevel;stroke-opacity:0">
      <path
         vector-effect="non-scaling-stroke"
         d="m -3,-3 6,0 0,6 -6,0 0,-6"
         id="path66"
         inkscape:connector-curvature="0"
         style="fill-rule:evenodd" />
    </g>
    <g
       transform="translate(1261,296.25)"
       font-size="11"
       font-weight="400"
       font-style="normal"
       id="g68"
       style="font-style:normal;font-weight:400;font-size:11px;font-family:Ubuntu;fill:none;stroke:#000000;stroke-width:1;stroke-linecap:square;stroke-linejoin:bevel;stroke-opacity:1" />
    <g
       transform="translate(1261,361.75)"
       font-size="11"
       font-weight="400"
       font-style="normal"
       id="g70"
       style="font-style:normal;font-weight:400;font-size:11px;font-family:Ubuntu;fill:none;stroke:#000000;stroke-width:1;stroke-linecap:square;stroke-linejoin:bevel;stroke-opacity:1" />
    <g
       transform="translate(1261,361.75)"
       font-size="11"
       font-weight="400"
       font-style="normal"
       id="g72"
       style="font-style:normal;font-weight:400;font-size:11px;font-family:Ubuntu;fill:#000000;fill-opacity:0;stroke:#000000;stroke-width:1;stroke-linecap:square;stroke-linejoin:bevel;stroke-opacity:0">
      <path
         vector-effect="non-scaling-stroke"
         d="m -3,-3 6,0 0,6 -6,0 0,-6"
         id="path74"
         inkscape:connector-curvature="0"
         style="fill-rule:evenodd" />
    </g>
    <g
       transform="translate(1261,361.75)"
       font-size="11"
       font-weight="400"
       font-style="normal"
       id="g76"
       style="font-style:normal;font-weight:400;font-size:11px;font-family:Ubuntu;fill:none;stroke:#000000;stroke-width:1;stroke-linecap:square;stroke-linejoin:bevel;stroke-opacity:1" />
    <g
       transform="matrix(0.3275,0,0,-0.3275,507.75,329)"
       font-size="11"
       font-weight="400"
       font-style="normal"
       id="g78"
       style="font-style:normal;font-weight:400;font-size:11px;font-family:Ubuntu;fill:none;stroke:#000000;stroke-width:1;stroke-linecap:square;stroke-linejoin:bevel;stroke-opacity:1" />
    <g
       transform="matrix(0.3275,0,0,-0.3275,507.75,329)"
       font-size="11"
       font-weight="400"
       font-style="normal"
       id="g80"
       style="font-style:normal;font-weight:400;font-size:11px;font-family:Ubuntu;fill:none;stroke:#000000;stroke-width:1;stroke-linecap:square;stroke-linejoin:bevel;stroke-opacity:1" />
    <g
       transform="matrix(0.3275,0,0,-0.3275,507.75,329)"
       font-size="11"
       font-weight="400"
       font-style="normal"
       id="g82"
       style="font-style:normal;font-weight:400;font-size:11px;font-family:Ubuntu;fill:none;stroke:#000000;stroke-width:1;stroke-linecap:square;stroke-linejoin:bevel;stroke-opacity:1" />
    <g
       stroke-miterlimit="2"
       transform="matrix(0.3275,0,0,-0.3275,507.75,329)"
       font-size="11"
       font-weight="400"
       font-style="normal"
       id="g84"
       style="font-style:normal;font-weight:400;font-size:11px;font-family:Ubuntu;fill:#0000ff;fill-opacity:1;stroke:#0000ff;stroke-width:1;stroke-linecap:square;stroke-linejoin:miter;stroke-miterlimit:2;stroke-opacity:1">
      <path
         vector-effect="non-scaling-stroke"
         d="M -100,100 100,0 l -200,-100 0,200"
         id="path86"
         inkscape:connector-curvature="0"
         style="fill-rule:evenodd" />
    </g>
    <g
       transform="matrix(0.3275,0,0,-0.3275,507.75,329)"
       font-size="11"
       font-weight="400"
       font-style="normal"
       id="g88"
       style="font-style:normal;font-weight:400;font-size:11px;font-family:Ubuntu;fill:none;stroke:#000000;stroke-width:1;stroke-linecap:square;stroke-linejoin:bevel;stroke-opacity:1" />
    <g
       transform="translate(475,361.75)"
       font-size="11"
       font-weight="400"
       font-style="normal"
       id="g90"
       style="font-style:normal;font-weight:400;font-size:11px;font-family:Ubuntu;fill:none;stroke:#000000;stroke-width:1;stroke-linecap:square;stroke-linejoin:bevel;stroke-opacity:1" />
    <g
       transform="translate(475,361.75)"
       font-size="11"
       font-weight="400"
       font-style="normal"
       id="g92"
       style="font-style:normal;font-weight:400;font-size:11px;font-family:Ubuntu;fill:#000000;fill-opacity:0;stroke:#000000;stroke-width:1;stroke-linecap:square;stroke-linejoin:bevel;stroke-opacity:0">
      <path
         vector-effect="non-scaling-stroke"
         d="m -3,-3 6,0 0,6 -6,0 0,-6"
         id="path94"
         inkscape:connector-curvature="0"
         style="fill-rule:evenodd" />
    </g>
    <g
       transform="translate(475,361.75)"
       font-size="11"
       font-weight="400"
       font-style="normal"
       id="g96"
       style="font-style:normal;font-weight:400;font-size:11px;font-family:Ubuntu;fill:none;stroke:#000000;stroke-width:1;stroke-linecap:square;stroke-linejoin:bevel;stroke-opacity:1" />
    <g
       transform="translate(475,296.25)"
       font-size="11"
       font-weight="400"
       font-style="normal"
       id="g98"
       style="font-style:normal;font-weight:400;font-size:11px;font-family:Ubuntu;fill:none;stroke:#000000;stroke-width:1;stroke-linecap:square;stroke-linejoin:bevel;stroke-opacity:1" />
    <g
       transform="translate(475,296.25)"
       font-size="11"
       font-weight="400"
       font-style="normal"
       id="g100"
       style="font-style:normal;font-weight:400;font-size:11px;font-family:Ubuntu;fill:#000000;fill-opacity:0;stroke:#000000;stroke-width:1;stroke-linecap:square;stroke-linejoin:bevel;stroke-opacity:0">
      <path
         vector-effect="non-scaling-stroke"
         d="m -3,-3 6,0 0,6 -6,0 0,-6"
         id="path102"
         inkscape:connector-curvature="0"
         style="fill-rule:evenodd" />
    </g>
    <g
       transform="translate(475,296.25)"
       font-size="11"
       font-weight="400"
       font-style="normal"
       id="g104"
       style="font-style:normal;font-weight:400;font-size:11px;font-family:Ubuntu;fill:none;stroke:#000000;stroke-width:1;stroke-linecap:square;stroke-linejoin:bevel;stroke-opacity:1" />
    <g
       transform="translate(540.5,296.25)"
       font-size="11"
       font-weight="400"
       font-style="normal"
       id="g106"
       style="font-style:normal;font-weight:400;font-size:11px;font-family:Ubuntu;fill:none;stroke:#000000;stroke-width:1;stroke-linecap:square;stroke-linejoin:bevel;stroke-opacity:1" />
    <g
       transform="translate(540.5,296.25)"
       font-size="11"
       font-weight="400"
       font-style="normal"
       id="g108"
       style="font-style:normal;font-weight:400;font-size:11px;font-family:Ubuntu;fill:#000000;fill-opacity:0;stroke:#000000;stroke-width:1;stroke-linecap:square;stroke-linejoin:bevel;stroke-opacity:0">
      <path
         vector-effect="non-scaling-stroke"
         d="m -3,-3 6,0 0,6 -6,0 0,-6"
         id="path110"
         inkscape:connector-curvature="0"
         style="fill-rule:evenodd" />
    </g>
    <g
       transform="translate(540.5,296.25)"
       font-size="11"
       font-weight="400"
       font-style="normal"
       id="g112"
       style="font-style:normal;font-weight:400;font-size:11px;font-family:Ubuntu;fill:none;stroke:#000000;stroke-width:1;stroke-linecap:square;stroke-linejoin:bevel;stroke-opacity:1" />
    <g
       transform="translate(540.5,361.75)"
       font-size="11"
       font-weight="400"
       font-style="normal"
       id="g114"
       style="font-style:normal;font-weight:400;font-size:11px;font-family:Ubuntu;fill:none;stroke:#000000;stroke-width:1;stroke-linecap:square;stroke-linejoin:bevel;stroke-opacity:1" />
    <g
       transform="translate(540.5,361.75)"
       font-size="11"
       font-weight="400"
       font-style="normal"
       id="g116"
       style="font-style:normal;font-weight:400;font-size:11px;font-family:Ubuntu;fill:#000000;fill-opacity:0;stroke:#000000;stroke-width:1;stroke-linecap:square;stroke-linejoin:bevel;stroke-opacity:0">
      <path
         vector-effect="non-scaling-stroke"
         d="m -3,-3 6,0 0,6 -6,0 0,-6"
         id="path118"
         inkscape:connector-curvature="0"
         style="fill-rule:evenodd" />
    </g>
    <g
       transform="translate(540.5,361.75)"
       font-size="11"
       font-weight="400"
       font-style="normal"
       id="g120"
       style="font-style:normal;font-weight:400;font-size:11px;font-family:Ubuntu;fill:none;stroke:#000000;stroke-width:1;stroke-linecap:square;stroke-linejoin:bevel;stroke-opacity:1" />
    <g
       transform="matrix(3.275,0,0,-3.275,868,329)"
       font-size="11"
       font-weight="400"
       font-style="normal"
       id="g122"
       style="font-style:normal;font-weight:400;font-size:11px;font-family:Ubuntu;fill:none;stroke:#000000;stroke-width:1;stroke-linecap:square;stroke-linejoin:bevel;stroke-opacity:1" />
    <g
       transform="matrix(3.275,0,0,-3.275,868,329)"
       font-size="11"
       font-weight="400"
       font-style="normal"
       id="g124"
       style="font-style:normal;font-weight:400;font-size:11px;font-family:Ubuntu;fill:none;stroke:#000000;stroke-width:1;stroke-linecap:square;stroke-linejoin:bevel;stroke-dasharray:1, 2;stroke-dashoffset:0;stroke-opacity:0" />
    <g
       transform="matrix(3.275,0,0,-3.275,868,329)"
       font-size="11"
       font-weight="400"
       font-style="normal"
       id="g126"
       style="font-style:normal;font-weight:400;font-size:11px;font-family:Ubuntu;fill:none;stroke:#000000;stroke-width:1;stroke-linecap:square;stroke-linejoin:bevel;stroke-opacity:1" />
    <g
       transform="matrix(3.275,0,0,-3.275,868,329)"
       font-size="11"
       font-weight="400"
       font-style="normal"
       id="g128"
       style="font-style:normal;font-weight:400;font-size:11px;font-family:Ubuntu;fill:none;stroke:#000000;stroke-width:1;stroke-linecap:square;stroke-linejoin:bevel;stroke-opacity:1" />
    <g
       transform="matrix(3.275,0,0,-3.275,868,329)"
       font-size="11"
       font-weight="400"
       font-style="normal"
       id="g130"
       style="font-style:normal;font-weight:400;font-size:11px;font-family:Ubuntu;fill:none;stroke:#000000;stroke-width:1;stroke-linecap:square;stroke-linejoin:bevel;stroke-dasharray:1, 2;stroke-dashoffset:0;stroke-opacity:0" />
    <g
       transform="matrix(3.275,0,0,-3.275,868,329)"
       font-size="11"
       font-weight="400"
       font-style="normal"
       id="g132"
       style="font-style:normal;font-weight:400;font-size:11px;font-family:Ubuntu;fill:none;stroke:#000000;stroke-width:1;stroke-linecap:square;stroke-linejoin:bevel;stroke-opacity:1" />
    <g
       font-size="11"
       font-weight="400"
       font-style="normal"
       id="g134"
       style="font-style:normal;font-weight:400;font-size:11px;font-family:Ubuntu;fill:none;stroke:#000000;stroke-width:1;stroke-linecap:square;stroke-linejoin:bevel;stroke-opacity:1" />
  </g>
</svg>
